**harm	**harte	**silbe	**silbe	**timestamp	**phrase	**leadinstrument	**kern
*M4/4	*M4/4	*	*	*	*	*	*
*	*	*	*	*	*	*	*
*	*	*	*	*	*	*	*
*g:	*g:	*	*	*g:	*g:	*g:	*g:
*	*	*	*	*	*	*	*
*	*	*	*	*	*	*	*
1r;	N	.	.	0	.	r	1r;
=1	=1	=1	=1	=1	=1	=1	=1
*>Letter>A	*>Letter>A	*>Letter>A	*>Letter>A	*>Letter>A	*>Letter>A	*>Letter>A	*>Letter>A
*>Label>Verse	*>Label>Verse	*>Label>Verse	*>Label>Verse	*>Label>Verse	*>Label>Verse	*>Label>Verse	*>Label>Verse
1i7	G:min7	Get	Get	1.842	newline	voice	1G 1b- 1dd 1ff#
.	.	down	down	.	.	.	.
.	.	Get	Get	.	.	.	.
.	.	down	down	.	.	.	.
.	.	.	.	.	.	.	.
=2	=2	=2	=2	=2	=2	=2	=2
1i7	G:min7	Get	Get	4.157	.	voice	1G 1b- 1dd 1ff#
.	.	down	down	.	.	.	.
.	.	Get	Get	.	.	.	.
.	.	down	down	.	.	.	.
.	.	.	.	.	.	.	.
=3	=3	=3	=3	=3	=3	=3	=3
1i7	G:min7	Get	Get	6.472	.	voice	1G 1b- 1dd 1ff#
.	.	down	down	.	.	.	.
.	.	Get	Get	.	.	.	.
.	.	down	down	.	.	.	.
.	.	.	.	.	.	.	.
=4	=4	=4	=4	=4	=4	=4	=4
1i7	G:min7	Get	Get	8.787	.	voice	1G 1b- 1dd 1ff#
.	.	down	down	.	.	.	.
.	.	Get	Get	.	.	.	.
.	.	down	down	.	.	.	.
.	.	.	.	.	.	.	.
=5	=5	=5	=5	=5	=5	=5	=5
1i7	G:min7	Get	Get	11.102	newline	voice	1G 1b- 1dd 1ff#
.	.	down	down	.	.	.	.
.	.	Get	Get	.	.	.	.
.	.	down	down	.	.	.	.
.	.	.	.	.	.	.	.
=6	=6	=6	=6	=6	=6	=6	=6
1i7	G:min7	Get	Get	13.389	.	voice	1G 1b- 1dd 1ff#
.	.	down	down	.	.	.	.
.	.	Get	Get	.	.	.	.
.	.	down	down	.	.	.	.
.	.	.	.	.	.	.	.
=7	=7	=7	=7	=7	=7	=7	=7
1i7	G:min7	Get	Get	15.676	.	voice	1G 1b- 1dd 1ff#
.	.	down	down	.	.	.	.
.	.	Get	Get	.	.	.	.
.	.	down	down	.	.	.	.
.	.	.	.	.	.	.	.
=8	=8	=8	=8	=8	=8	=8	=8
1i7	G:min7	Get	Get	17.963	.	voice	1G 1b- 1dd 1ff#
.	.	down	down	.	.	.	.
.	.	Get	Get	.	.	.	.
.	.	down	down	.	.	.	.
.	.	.	.	.	.	.	.
=9	=9	=9	=9	=9	=9	=9	=9
*>Letter>B	*>Letter>B	*>Letter>B	*>Letter>B	*>Letter>B	*>Letter>B	*>Letter>B	*>Letter>B
*>Label>Instrumental	*>Label>Instrumental	*>Label>Instrumental	*>Label>Instrumental	*>Label>Instrumental	*>Label>Instrumental	*>Label>Instrumental	*>Label>Instrumental
1i7	G:min7	.	.	20.25	newline	bass	1G 1b- 1dd 1ff#
=10	=10	=10	=10	=10	=10	=10	=10
1i7	G:min7	.	.	22.529	.	bass	1G 1b- 1dd 1ff#
=11	=11	=11	=11	=11	=11	=11	=11
1i7	G:min7	.	.	24.807	.	bass	1G 1b- 1dd 1ff#
=12	=12	=12	=12	=12	=12	=12	=12
1i7	G:min7	.	.	27.085	.	bass	1G 1b- 1dd 1ff#
=13	=13	=13	=13	=13	=13	=13	=13
1i7	G:min7	.	.	29.363	newline	trumpet	1G 1b- 1dd 1ff#
=14	=14	=14	=14	=14	=14	=14	=14
1i7	G:min7	.	.	31.639	.	trumpet	1G 1b- 1dd 1ff#
=15	=15	=15	=15	=15	=15	=15	=15
1i7	G:min7	.	.	33.915	.	trumpet	1G 1b- 1dd 1ff#
=16	=16	=16	=16	=16	=16	=16	=16
1i7	G:min7	.	.	36.191	.	trumpet	1G 1b- 1dd 1ff#
=17	=17	=17	=17	=17	=17	=17	=17
*>Letter>C	*>Letter>C	*>Letter>C	*>Letter>C	*>Letter>C	*>Letter>C	*>Letter>C	*>Letter>C
*>Label>Chorus	*>Label>Chorus	*>Label>Chorus	*>Label>Chorus	*>Label>Chorus	*>Label>Chorus	*>Label>Chorus	*>Label>Chorus
1i7	G:min7	Jun-	Jun-	38.466	newline	voice	1G 1b- 1dd 1ff#
.	.	-gle	-gle	.	.	.	.
.	.	boo-	boo-	.	.	.	.
.	.	-gie	-gie	.	.	.	.
.	.	.	.	.	.	.	.
=18	=18	=18	=18	=18	=18	=18	=18
1i7	G:min7	Jun-	Jun-	40.734	.	voice	1G 1b- 1dd 1ff#
.	.	-gle	-gle	.	.	.	.
.	.	boo-	boo-	.	.	.	.
.	.	-gie	-gie	.	.	.	.
.	.	.	.	.	.	.	.
=19	=19	=19	=19	=19	=19	=19	=19
1i7	G:min7	Jun-	Jun-	43.002	.	voice	1G 1b- 1dd 1ff#
.	.	-gle	-gle	.	.	.	.
.	.	boo-	boo-	.	.	.	.
.	.	-gie	-gie	.	.	.	.
.	.	.	.	.	.	.	.
=20	=20	=20	=20	=20	=20	=20	=20
1i7	G:min7	Jun-	Jun-	45.27	.	voice	1G 1b- 1dd 1ff#
.	.	-gle	-gle	.	.	.	.
.	.	boo-	boo-	.	.	.	.
.	.	-gie	-gie	.	.	.	.
.	.	.	.	.	.	.	.
=21	=21	=21	=21	=21	=21	=21	=21
1i7	G:min7	Jun-	Jun-	47.538	newline	voice	1G 1b- 1dd 1ff#
.	.	-gle	-gle	.	.	.	.
.	.	boo-	boo-	.	.	.	.
.	.	-gie	-gie	.	.	.	.
.	.	.	.	.	.	.	.
=22	=22	=22	=22	=22	=22	=22	=22
1i7	G:min7	Jun-	Jun-	49.813	.	voice	1G 1b- 1dd 1ff#
.	.	-gle	-gle	.	.	.	.
.	.	boo-	boo-	.	.	.	.
.	.	-gie	-gie	.	.	.	.
.	.	.	.	.	.	.	.
=23	=23	=23	=23	=23	=23	=23	=23
1i7	G:min7	Jun-	Jun-	52.089	.	voice	1G 1b- 1dd 1ff#
.	.	-gle	-gle	.	.	.	.
.	.	boo-	boo-	.	.	.	.
.	.	-gie	-gie	.	.	.	.
.	.	.	.	.	.	.	.
=24	=24	=24	=24	=24	=24	=24	=24
1i7	G:min7	Jun-	Jun-	54.364	.	voice	1G 1b- 1dd 1ff#
.	.	-gle	-gle	.	.	.	.
.	.	boo-	boo-	.	.	.	.
.	.	-gie	-gie	.	.	.	.
.	.	.	.	.	.	.	.
=25	=25	=25	=25	=25	=25	=25	=25
*>Letter>B	*>Letter>B	*>Letter>B	*>Letter>B	*>Letter>B	*>Letter>B	*>Letter>B	*>Letter>B
*>Label>Instrumental	*>Label>Instrumental	*>Label>Instrumental	*>Label>Instrumental	*>Label>Instrumental	*>Label>Instrumental	*>Label>Instrumental	*>Label>Instrumental
1i7	G:min7	.	.	56.639	newline	bass	1G 1b- 1dd 1ff#
=26	=26	=26	=26	=26	=26	=26	=26
1i7	G:min7	.	.	58.9	.	bass	1G 1b- 1dd 1ff#
=27	=27	=27	=27	=27	=27	=27	=27
1i7	G:min7	.	.	61.161	.	bass	1G 1b- 1dd 1ff#
=28	=28	=28	=28	=28	=28	=28	=28
1i7	G:min7	.	.	63.422	.	bass	1G 1b- 1dd 1ff#
=29	=29	=29	=29	=29	=29	=29	=29
1i7	G:min7	.	.	65.683	newline	trumpet	1G 1b- 1dd 1ff#
=30	=30	=30	=30	=30	=30	=30	=30
1i7	G:min7	.	.	67.945	.	trumpet	1G 1b- 1dd 1ff#
=31	=31	=31	=31	=31	=31	=31	=31
1i7	G:min7	.	.	70.208	.	trumpet	1G 1b- 1dd 1ff#
=32	=32	=32	=32	=32	=32	=32	=32
1i7	G:min7	.	.	72.47	.	trumpet	1G 1b- 1dd 1ff#
=33	=33	=33	=33	=33	=33	=33	=33
*>Letter>C	*>Letter>C	*>Letter>C	*>Letter>C	*>Letter>C	*>Letter>C	*>Letter>C	*>Letter>C
*>Label>Chorus	*>Label>Chorus	*>Label>Chorus	*>Label>Chorus	*>Label>Chorus	*>Label>Chorus	*>Label>Chorus	*>Label>Chorus
1i7	G:min7	Jun-	Jun-	74.733	newline	voice	1G 1b- 1dd 1ff#
.	.	-gle	-gle	.	.	.	.
.	.	boo-	boo-	.	.	.	.
.	.	-gie	-gie	.	.	.	.
.	.	.	.	.	.	.	.
=34	=34	=34	=34	=34	=34	=34	=34
1i7	G:min7	Jun-	Jun-	77.011	.	voice	1G 1b- 1dd 1ff#
.	.	-gle	-gle	.	.	.	.
.	.	boo-	boo-	.	.	.	.
.	.	-gie	-gie	.	.	.	.
.	.	.	.	.	.	.	.
=35	=35	=35	=35	=35	=35	=35	=35
1i7	G:min7	Jun-	Jun-	79.29	.	voice	1G 1b- 1dd 1ff#
.	.	-gle	-gle	.	.	.	.
.	.	boo-	boo-	.	.	.	.
.	.	-gie	-gie	.	.	.	.
.	.	.	.	.	.	.	.
=36	=36	=36	=36	=36	=36	=36	=36
1i7	G:min7	Jun-	Jun-	81.568	.	voice	1G 1b- 1dd 1ff#
.	.	-gle	-gle	.	.	.	.
.	.	boo-	boo-	.	.	.	.
.	.	-gie	-gie	.	.	.	.
.	.	.	.	.	.	.	.
=37	=37	=37	=37	=37	=37	=37	=37
1i7	G:min7	Jun-	Jun-	83.847	newline	voice	1G 1b- 1dd 1ff#
.	.	-gle	-gle	.	.	.	.
.	.	boo-	boo-	.	.	.	.
.	.	-gie	-gie	.	.	.	.
.	.	.	.	.	.	.	.
=38	=38	=38	=38	=38	=38	=38	=38
1i7	G:min7	Jun-	Jun-	86.107	.	voice	1G 1b- 1dd 1ff#
.	.	-gle	-gle	.	.	.	.
.	.	boo-	boo-	.	.	.	.
.	.	-gie	-gie	.	.	.	.
.	.	.	.	.	.	.	.
=39	=39	=39	=39	=39	=39	=39	=39
1i7	G:min7	Jun-	Jun-	88.366	.	voice	1G 1b- 1dd 1ff#
.	.	-gle	-gle	.	.	.	.
.	.	boo-	boo-	.	.	.	.
.	.	-gie	-gie	.	.	.	.
.	.	.	.	.	.	.	.
=40	=40	=40	=40	=40	=40	=40	=40
1i7	G:min7	Jun-	Jun-	90.626	.	voice	1G 1b- 1dd 1ff#
.	.	-gle	-gle	.	.	.	.
.	.	boo-	boo-	.	.	.	.
.	.	-gie	-gie	.	.	.	.
.	.	.	.	.	.	.	.
=41	=41	=41	=41	=41	=41	=41	=41
*>Letter>A2	*>Letter>A2	*>Letter>A2	*>Letter>A2	*>Letter>A2	*>Letter>A2	*>Letter>A2	*>Letter>A2
*>Label>Verse	*>Label>Verse	*>Label>Verse	*>Label>Verse	*>Label>Verse	*>Label>Verse	*>Label>Verse	*>Label>Verse
1i7	G:min7	Get	Get	92.886	newline	voice	1G 1b- 1dd 1ff#
.	.	down	down	.	.	.	.
.	.	Get	Get	.	.	.	.
.	.	down	down	.	.	.	.
.	.	.	.	.	.	.	.
=42	=42	=42	=42	=42	=42	=42	=42
1i7	G:min7	Get	Get	95.164	.	voice	1G 1b- 1dd 1ff#
.	.	down	down	.	.	.	.
.	.	Get	Get	.	.	.	.
.	.	down	down	.	.	.	.
.	.	.	.	.	.	.	.
=43	=43	=43	=43	=43	=43	=43	=43
1i7	G:min7	Get	Get	97.443	.	voice	1G 1b- 1dd 1ff#
.	.	down	down	.	.	.	.
.	.	Get	Get	.	.	.	.
.	.	down	down	.	.	.	.
.	.	.	.	.	.	.	.
=44	=44	=44	=44	=44	=44	=44	=44
1i7	G:min7	Get	Get	99.721	.	voice	1G 1b- 1dd 1ff#
.	.	down	down	.	.	.	.
.	.	Get	Get	.	.	.	.
.	.	down	down	.	.	.	.
.	.	.	.	.	.	.	.
=45	=45	=45	=45	=45	=45	=45	=45
1i7	G:min7	Get	Get	102	newline	voice	1G 1b- 1dd 1ff#
.	.	down	down	.	.	.	.
.	.	Get	Get	.	.	.	.
.	.	down	down	.	.	.	.
.	.	.	.	.	.	.	.
=46	=46	=46	=46	=46	=46	=46	=46
1i7	G:min7	Get	Get	104.258	.	voice	1G 1b- 1dd 1ff#
.	.	down	down	.	.	.	.
.	.	Get	Get	.	.	.	.
.	.	down	down	.	.	.	.
.	.	.	.	.	.	.	.
=47	=47	=47	=47	=47	=47	=47	=47
1i7	G:min7	Get	Get	106.517	.	voice	1G 1b- 1dd 1ff#
.	.	down	down	.	.	.	.
.	.	Get	Get	.	.	.	.
.	.	down	down	.	.	.	.
.	.	.	.	.	.	.	.
=48	=48	=48	=48	=48	=48	=48	=48
1i7	G:min7	Get	Get	108.776	.	voice	1G 1b- 1dd 1ff#
.	.	down	down	.	.	.	.
.	.	Get	Get	.	.	.	.
.	.	down	down	.	.	.	.
.	.	.	.	.	.	.	.
=49	=49	=49	=49	=49	=49	=49	=49
1i7	G:min7	Get	Get	111.035	newline	voice	1G 1b- 1dd 1ff#
.	.	down	down	.	.	.	.
.	.	Get	Get	.	.	.	.
.	.	down	down	.	.	.	.
.	.	.	.	.	.	.	.
=50	=50	=50	=50	=50	=50	=50	=50
1i7	G:min7	Get	Get	113.301	.	voice	1G 1b- 1dd 1ff#
.	.	down	down	.	.	.	.
.	.	Get	Get	.	.	.	.
.	.	down	down	.	.	.	.
.	.	.	.	.	.	.	.
=51	=51	=51	=51	=51	=51	=51	=51
1i7	G:min7	Get	Get	115.568	.	voice	1G 1b- 1dd 1ff#
.	.	down	down	.	.	.	.
.	.	Get	Get	.	.	.	.
.	.	down	down	.	.	.	.
.	.	.	.	.	.	.	.
=52	=52	=52	=52	=52	=52	=52	=52
1i7	G:min7	Get	Get	117.834	.	voice	1G 1b- 1dd 1ff#
.	.	down	down	.	.	.	.
.	.	Get	Get	.	.	.	.
.	.	down	down	.	.	.	.
.	.	.	.	.	.	.	.
=53	=53	=53	=53	=53	=53	=53	=53
*>Letter>B2	*>Letter>B2	*>Letter>B2	*>Letter>B2	*>Letter>B2	*>Letter>B2	*>Letter>B2	*>Letter>B2
*>Label>Instrumental	*>Label>Instrumental	*>Label>Instrumental	*>Label>Instrumental	*>Label>Instrumental	*>Label>Instrumental	*>Label>Instrumental	*>Label>Instrumental
1i7	G:min7	.	.	120.101	newline	trumpet	1G 1b- 1dd 1ff#
=54	=54	=54	=54	=54	=54	=54	=54
1i7	G:min7	.	.	122.37	.	trumpet	1G 1b- 1dd 1ff#
=55	=55	=55	=55	=55	=55	=55	=55
1i7	G:min7	.	.	124.639	.	trumpet	1G 1b- 1dd 1ff#
=56	=56	=56	=56	=56	=56	=56	=56
1i7	G:min7	.	.	126.908	.	trumpet	1G 1b- 1dd 1ff#
=57	=57	=57	=57	=57	=57	=57	=57
*>Letter>D	*>Letter>D	*>Letter>D	*>Letter>D	*>Letter>D	*>Letter>D	*>Letter>D	*>Letter>D
*>Label>Outro	*>Label>Outro	*>Label>Outro	*>Label>Outro	*>Label>Outro	*>Label>Outro	*>Label>Outro	*>Label>Outro
1i7	G:min7	.	.	129.178	newline	bass	1G 1b- 1dd 1ff#
=58	=58	=58	=58	=58	=58	=58	=58
1i7	G:min7	.	.	131.429	.	bass	1G 1b- 1dd 1ff#
=59	=59	=59	=59	=59	=59	=59	=59
1i7	G:min7	.	.	133.68	.	bass	1G 1b- 1dd 1ff#
=60	=60	=60	=60	=60	=60	=60	=60
1i7	G:min7	.	.	135.93	.	bass	1G 1b- 1dd 1ff#
=61	=61	=61	=61	=61	=61	=61	=61
1i7	G:min7	.	.	138.181	newline	bass	1G 1b- 1dd 1ff#
=62	=62	=62	=62	=62	=62	=62	=62
1i7	G:min7	.	.	140.425	.	bass	1G 1b- 1dd 1ff#
=63	=63	=63	=63	=63	=63	=63	=63
1i7	G:min7	.	.	142.668	.	bass	1G 1b- 1dd 1ff#
=64	=64	=64	=64	=64	=64	=64	=64
1i7	G:min7	.	.	144.911	.	bass	1G 1b- 1dd 1ff#
=65	=65	=65	=65	=65	=65	=65	=65
1i7	G:min7	.	.	147.155	newline	bass	1G 1b- 1dd 1ff#
=66	=66	=66	=66	=66	=66	=66	=66
1i7	G:min7	.	.	149.4	.	bass	1G 1b- 1dd 1ff#
=67	=67	=67	=67	=67	=67	=67	=67
1i7	G:min7	.	.	151.646	.	bass	1G 1b- 1dd 1ff#
=68	=68	=68	=68	=68	=68	=68	=68
1i7	G:min7	.	.	153.892	.	bass	1G 1b- 1dd 1ff#
=69	=69	=69	=69	=69	=69	=69	=69
1i7	G:min7	.	.	156.138	newline	bass	1G 1b- 1dd 1ff#
=70	=70	=70	=70	=70	=70	=70	=70
1i7	G:min7	.	.	158.346	.	bass	1G 1b- 1dd 1ff#
=71	=71	=71	=71	=71	=71	=71	=71
1i7	G:min7	.	.	160.555	.	bass	1G 1b- 1dd 1ff#
=72	=72	=72	=72	=72	=72	=72	=72
1i7	G:min7	.	.	162.763	.	bass	1G 1b- 1dd 1ff#
=73	=73	=73	=73	=73	=73	=73	=73
1i7	G:min7	.	.	164.972	newline	bass	1G 1b- 1dd 1ff#
=74	=74	=74	=74	=74	=74	=74	=74
1i7	G:min7	.	.	167.195	.	bass	1G 1b- 1dd 1ff#
=75	=75	=75	=75	=75	=75	=75	=75
1i7	G:min7	.	.	169.417	.	bass	1G 1b- 1dd 1ff#
=76	=76	=76	=76	=76	=76	=76	=76
1i7	G:min7	.	.	171.64	.	bass	1G 1b- 1dd 1ff#
=77	=77	=77	=77	=77	=77	=77	=77
1i7	G:min7	.	.	173.863	newline	bass	1G 1b- 1dd 1ff#
=78	=78	=78	=78	=78	=78	=78	=78
1i7	G:min7	.	.	175.852	.	bass	1G 1b- 1dd 1ff#
=79	=79	=79	=79	=79	=79	=79	=79
1i7	G:min7	.	.	177.841	.	bass	1G 1b- 1dd 1ff#
=80	=80	=80	=80	=80	=80	=80	=80
1i7	G:min7	.	.	179.831	.	bass	1G 1b- 1dd 1ff#
=81	=81	=81	=81	=81	=81	=81	=81
1i7	G:min7	.	.	181.82	.	bass	1G 1b- 1dd 1ff#
1r;	N	.	.	183.809	.	r	1r;
1r;	N	.	.	186.201	.	r	1r;
*-	*-	*-	*-	*-	*-	*-	*-
!!!BillboardChartDate: 1974/01/19
!!!BillboardPeak: 4
!!!BillboardWeeksOnChart: 22
!!!COC: Kool & The Gang
!!!ENC: Nathaniel Condit-Schultz
!!!EST: Awating manual error checking and editing.
!!!OTL: Jungle Boogie
!!!RDF**harte: Chris Harte's syntax, used by MIREX
!!!RDF**harmony: **recip + pitch class of root + harmonic quality
!!!RDF**leadinstrument: original McGill primary instrumentation annotation
!!!RDF**phrase: newline = linebreak in original McGill transcription
!!!RDF**timestamp: McGill audio timestamp in seconds
!!!RDT: 2017/01/12/
!!!SampleActualRank: 22
!!!SampleID#: 0331
!!!SampleTargetRank: 22
!!!MBID: afd7680d-0df0-41d8-8d80-318090702f90
